X:5554
T:Rigadoon 1
O:england
R:Rigadoon
M:6/4
L:1/4
N:should be 'rigaudon'
K:C
G | c>B cdec | d3 G2 c/d/ | e>cA fdB | c3-c2 :|
|:G/4A/4B/ | c>BAGcG | AcA G2c | dfd AdA |\
BdB G2 c/d/ | e>cd GcB | c3-c2:|


